src/icons/trash-b-open.svg

<?xml version="1.0" encoding="UTF-8"?>
<svg width="512px" height="512px" viewBox="0 0 512 512" version="1.1" xmlns="http://www.w3.org/2000/svg" xmlns:xlink="http://www.w3.org/1999/xlink">
    <!-- Generator: Sketch 62 (91390) - https://sketch.com -->
    <title>trash-b-open</title>
    <desc>Created with Sketch.</desc>
    <g id="trash-b-open" stroke="none" stroke-width="1" fill="none" fill-rule="evenodd">
        <path d="M386.9,89.9081124 C382.5,83.0081124 379.7,79.2081124 379.7,79.2081124 C375,72.0081124 369.5,73.8081124 360.8,75.1081124 L314.3,83.8081124 C308.5,84.6081124 308.5,84.6081124 304.7,80.5081124 C292,66.4081124 286.8,57.4081124 278.7,59.9081124 L191.8,87.7081124 C183.8,90.2081124 184.6,100.608112 182.7,119.608112 C182,125.008112 182,125.008112 176.8,127.808112 L133.7,147.808112 C125.9,151.808112 120.3,154.408112 120.6,162.908112 C120.6,162.908112 120.7,166.708112 120.9,174.808112 C121.4,185.708112 119.9,185.008112 129.2,182.008112 L384.2,100.508112 C393.5,97.7081124 392.9,99.0081124 386.9,89.9081124 Z M361.1,198.608112 L142.7,198.608112 C128,198.608112 127.3,200.508112 128.1,211.608112 L144.7,426.408112 C146.1,437.308112 147.2,439.508112 160.2,439.508112 L343.6,439.508112 C356.6,439.508112 357.6,437.308112 359.1,426.408112 L375.7,211.608112 C376.5,200.408112 375.9,198.608112 361.1,198.608112 L361.1,198.608112 Z" id="Shape" fill="#000000" fill-rule="nonzero"></path>
    </g>
</svg>

<svg xmlns="http://www.w3.org/2000/svg" width="512" height="512" viewBox="0 0 512 512">
    <path d="M386.9 89.908c-4.4-6.9-7.2-10.7-7.2-10.7-4.7-7.2-10.2-5.4-18.9-4.1l-46.5 8.7c-5.8.8-5.8.8-9.6-3.3-12.7-14.1-17.9-23.1-26-20.6l-86.9 27.8c-8 2.5-7.2 12.9-9.1 31.9-.7 5.4-.7 5.4-5.9 8.2l-43.1 20c-7.8 4-13.4 6.6-13.1 15.1 0 0 .1 3.8.3 11.9.5 10.9-1 10.2 8.3 7.2l255-81.5c9.3-2.8 8.7-1.5 2.7-10.6zm-25.8 108.7H142.7c-14.7 0-15.4 1.9-14.6 13l16.6 214.8c1.4 10.9 2.5 13.1 15.5 13.1h183.4c13 0 14-2.2 15.5-13.1l16.6-214.8c.8-11.2.2-13-14.6-13z"/>
</svg>
